!!!OTL: Eng ongeheiesch Freiesch (78a), S. 215
!!!id: T0228
**kern
*clefG2
*k[f#]
*G:
{8d
=1
16g
16g
8g
8g
8b
8a
8g
=2
2a}
8r
=3
{8d
=4
16g
16g
8g
8g
8b
8a
8g
=5
2a}
8r
=6
{8d
=7
16a
16a
8a
8a
8cc
8b
8a
=8
2b}
8r
=9
{8d
=10
8cc
16cc
16cc
8cc
8cc
8b}
=11
{8a
=12
8b
8b
16b
16b
8b
8g}
=13
{8g
=14
4a
8a
8f#
8e
8f#
=15
2g}
8r
==
*-
!!!minrhy: 16
!!!meters: 6/8 ]  ZZ[6
!!!cut: Eng ongeheiesch Freiesch (78a), S. 215
!!!reg: Luxemburg
!!!trd: Singendes Volk, Esch-Alzette 1937 posth.
!!!rhy1: X_  XXX_X_X_X_X_  X___0_
!!!rhy2: X_  XXX_X_X_X_X_  X___0_
!!!key: T0228  16  G 6/8 ]  ZZ[6
!!!mod: HEPTATONIK IONISCH]  AMBITUS[7b
!!!kad: 223311
!!!akz: 1322_1322_2433_44_33_2-711_
!!!fot: 'a__a__as'b__c__d__
!!!for: 'a__a__a__b__c__d__
!!!fok: '/__/__/__/__\__V__
!! PHRAS[AUFTAKTIG]
!!!fkt: Liebeslieder
!!!bem: Junglinster, um 1890
!! THILL, Mathias:
!! PR[29] 2K[0] 2G[12] 3K[9] 3G[3] 4A[6] 4Ü[0] 5A[3] 6K[0] 6G[0]
!! 7K[0] 7G[0] 8A[0] MEHR[0] SI[32] ABS[34] SR[12] SP[21]
!! ST[8] 2k[9] 2g[24] 3k[3] 3g[0] 4d[0] 4ü[0] 5d[3] 6k[0] 6g[0]
!! 7k[0] 7g[0] 8d[0] mehr[0] si[38] dm[-6] sr[32] sp[6]
!! 1F[15] 2F[72] 3F[3] 4F[8] LF[0] 2P[0] 3P[3] 4P[0] TRI[0] DF[5] AB[39]
!! TF[0] U3K[0] U3[0] U4[0] U4Ü[0] U5[6] U6K[0] U6[0] U7K[0] U7[0]
!! N1[14] N2K[0] N2[26] N3K[0] N3[20] N4[9] N4Ü[0] N5[23] N6K[0] N6[3]
!!!n7k: 0] N7[0] O1[0] O2K[0] O2[0] O3K[0] O3[0] HÖ[0
